24x24/actions/exchange-positions-clockwise.svg

<svg viewBox="0 0 24 24" xmlns="http://www.w3.org/2000/svg"><path d="m4 4v7h8v-7zm1 1h6v5h-6zm8 .078v3.922h1v-2.645a6 6 0 0 1 4 5.645h1a7 7 0 0 0 -6-6.922zm-8 6.922a7 7 0 0 0 6 6.922v-3.922h-1v2.645a6 6 0 0 1 -4-5.645z" fill="#8b9cbe"/><path d="m16.5 13a3.5 3.5 0 0 0 -3.5 3.5 3.5 3.5 0 0 0 .7 2.094l.716-.717a2.5 2.5 0 0 1 -.416-1.377 2.5 2.5 0 0 1 2.5-2.5 2.5 2.5 0 0 1 1.377.416l.717-.717a3.5 3.5 0 0 0 -2.094-.699zm2.8 1.406-.716.717a2.5 2.5 0 0 1 .416 1.377 2.5 2.5 0 0 1 -2.5 2.5 2.5 2.5 0 0 1 -1.377-.416l-.717.717a3.5 3.5 0 0 0 2.094.699 3.5 3.5 0 0 0 3.5-3.5 3.5 3.5 0 0 0 -.7-2.094z" fill="#3daee9"/></svg>

<svg xmlns="http://www.w3.org/2000/svg" viewBox="0 0 24 24"><path style="fill:currentColor;fill-opacity:1;stroke:none;color:#8b9cbe" d="M4 4v7h8V4H4zm1 1h6v5H5V5zm8 .078V9h1V6.355A6 6 0 0 1 18 12h1a7 7 0 0 0-6-6.922zM5 12a7 7 0 0 0 6 6.922V15h-1v2.645A6 6 0 0 1 6 12H5z"/><path style="fill:currentColor;fill-opacity:1;stroke:none;color:#3daee9" d="M16.5 13a3.5 3.5 0 0 0-3.5 3.5 3.5 3.5 0 0 0 .7 2.094l.716-.717A2.5 2.5 0 0 1 14 16.5a2.5 2.5 0 0 1 2.5-2.5 2.5 2.5 0 0 1 1.377.416l.717-.717A3.5 3.5 0 0 0 16.5 13zm2.8 1.406-.716.717A2.5 2.5 0 0 1 19 16.5a2.5 2.5 0 0 1-2.5 2.5 2.5 2.5 0 0 1-1.377-.416l-.717.717A3.5 3.5 0 0 0 16.5 20a3.5 3.5 0 0 0 3.5-3.5 3.5 3.5 0 0 0-.7-2.094z"/></svg>
